X: 1
T:Road to Lisdoonvarna, The
M:12/8
L:1/8
R:Slide
K:Edor
E2B B2A B2c d3|F2A ABA D2E FED|!
E2B B2A B2c d3|cdc B2A B2E E2D||!
E2B B2A B2c d3|F2A ABA D2E FED|!
E2B B2A B2c d3|cdc B2A B2E E3|]!
e2f gfe d2B Bcd|c2A ABc d2B B2d|!
e2f gfe d2B Bcd|cdc B2A B2E E3||!
e2f gfe d2B Bcd|c2A ABc d2B B2d|!
e2f gfe d2B Bcd|cdc B2A B2E E2D:|]!
